64x64/apps/hakuneko-desktop.svg

<svg xmlns="http://www.w3.org/2000/svg" width="64" height="64"><rect style="opacity:.2" width="56" height="56" x="4" y="5" rx="2.8" ry="2.8"/><rect style="fill:#ffcaab" width="56" height="56" x="4" y="4" rx="2.8" ry="2.8"/><path style="opacity:.2" d="M16 41s2 3 9 6c7.283 3.121 13 6 23 6 3 0 4-4 4-4l-4-13-15-11-16-6-2 6-1 10z"/><path style="fill:#f4f4f7" d="M16 40s2 3 9 6c7.283 3.121 13 6 23 6 3 0 4-4 4-4l-4-13-15-11-16-6-2 6-1 10z"/><path style="fill:#54116e" d="M28.803 23.273A11 13 0 0 0 24 34a11 13 0 0 0 .035.842l20.244 6.133A11 13 0 0 0 46 34a11 13 0 0 0-.014-.465L37 27z"/><path style="opacity:.1" d="M16 42s-1-6-1-10c0-6 2-10 2-10s8.293 1.453 18 7c7 4 13 9 13 9l4 12v-7l4 3s-3-8-5-10c-6-6-9-7-17-12-9.173-5.733-24-13-24-13l4 7-2-1 1 3v12c0 4 3 10 3 10z"/><path style="fill:#4f4f4f" d="M16 41s-1-6-1-10c0-6 2-10 2-10s8.293 1.453 18 7c7 4 13 9 13 9l4 12v-7l4 3s-3-8-5-10c-6-6-9-7-17-12-9.173-5.733-24-13-24-13l4 7-2-1 1 3v12c0 4 3 10 3 10z"/><path style="fill:#6b5ca7" d="M30 34a15 10 0 0 0-5.965.838 11 13 0 0 0 .363 2.574l17.426 6.764a11 13 0 0 0 2.455-3.201A15 10 0 0 0 30 34z"/><path style="fill:#86bdcd" d="M28.5 37a13.5 8.5 0 0 0-4.102.412A11 13 0 0 0 35 47a11 13 0 0 0 6.826-2.824A13.5 8.5 0 0 0 28.5 37z"/><path style="fill:#b8d8e2" d="M35 42s6-3 6-7c0 0 0-3-3-3-2 0-3 3-3 3s-1-3-3-3c-3 0-3 3-3 3 0 4 6 7 6 7z"/><ellipse style="fill:#f4f4f7" cx="26" cy="31" rx="7" ry="4"/><path style="opacity:.2;fill:#f4f4f7" d="M6.8 4C5.25 4 4 5.25 4 6.8v1C4 6.25 5.25 5 6.8 5H57.2A2.796 2.796 0 0 1 60 7.8v-1C60 5.25 58.75 4 57.199 4H6.801z"/></svg>

<svg xmlns="http://www.w3.org/2000/svg" width="64" height="64" version="1.1">
 <rect style="opacity:0.2" width="56" height="56" x="4" y="5" rx="2.8" ry="2.8"/>
 <rect style="fill:#ffcaab" width="56" height="56" x="4" y="4" rx="2.8" ry="2.8"/>
 <path style="opacity:0.2" d="M 16,41 C 16,41 18,44 25,47 32.283,50.121 38,53 48,53 51,53 52,49 52,49 L 48,36 33,25 17,19 15,25 14,35 Z"/>
 <path style="fill:#f4f4f7" d="M 16,40 C 16,40 18,43 25,46 32.283,49.121 38,52 48,52 51,52 52,48 52,48 L 48,35 33,24 17,18 15,24 14,34 Z"/>
 <path style="fill:#54116e" d="M 28.803,23.273 A 11,13 0 0 0 24,34 11,13 0 0 0 24.035,34.842 L 44.279,40.975 A 11,13 0 0 0 46,34 11,13 0 0 0 45.986,33.535 L 37,27 Z"/>
 <path style="opacity:0.1" d="M 16,42 C 16,42 15,36 15,32 15,26 17,22 17,22 17,22 25.293,23.453 35,29 42,33 48,38 48,38 L 52,50 V 43 L 56,46 C 56,46 53,38 51,36 45,30 42,29 34,24 24.827,18.267 10,11 10,11 L 14,18 12,17 13,20 V 32 C 13,36 16,42 16,42 Z"/>
 <path style="fill:#4f4f4f" d="M 16,41 C 16,41 15,35 15,31 15,25 17,21 17,21 17,21 25.293,22.453 35,28 42,32 48,37 48,37 L 52,49 V 42 L 56,45 C 56,45 53,37 51,35 45,29 42,28 34,23 24.827,17.267 10,10 10,10 L 14,17 12,16 13,19 V 31 C 13,35 16,41 16,41 Z"/>
 <path style="fill:#6b5ca7" d="M 30,34 A 15,10 0 0 0 24.035,34.838 11,13 0 0 0 24.398,37.412 L 41.824,44.176 A 11,13 0 0 0 44.279,40.975 15,10 0 0 0 30,34 Z"/>
 <path style="fill:#86bdcd" d="M 28.5,37 A 13.5,8.5 0 0 0 24.398,37.412 11,13 0 0 0 35,47 11,13 0 0 0 41.826,44.176 13.5,8.5 0 0 0 28.5,37 Z"/>
 <path style="fill:#b8d8e2" d="M 35,42 C 35,42 41,39 41,35 41,35 41,32 38,32 36,32 35,35 35,35 35,35 34,32 32,32 29,32 29,35 29,35 29,39 35,42 35,42 Z"/>
 <ellipse style="fill:#f4f4f7" cx="26" cy="31" rx="7" ry="4"/>
 <path style="opacity:0.2;fill:#f4f4f7" d="M 6.8008 4 C 5.2496 4 4 5.2496 4 6.8008 L 4 7.8008 C 4 6.2496 5.2496 5 6.8008 5 L 57.199 5 C 58.75 5 60 6.2496 60 7.8008 L 60 6.8008 C 60 5.2496 58.75 4 57.199 4 L 6.8008 4 z"/>
</svg>
